X: 7953
T: Condon's Frolics
R: jig
M: 6/8
K: Adorian
|:eAB cBe|edc Bcd|eAB c2d|~e3 eag|
eAB ~c3|edc ~B3|GBd gdB|1 ABA Acd:|2 ABA A3||
|:eaa egg|ded cBG|~c3 dcd|e2d efg|
eaa egg|ded cBA|AB/c/d gdB|1 ABA A3:|2 ABA ABd||

